X: 5226
T: Broken Bicycle, The
R: hornpipe
M: 4/4
K: Eminor
Beee edBG|A2 BA GEFD|Beee edBG|f2 gf edBA|
Beee edBG|A2 BA GEFD|edBG A2 BA|1 GEFD E2 E2:|2 GEFD Eeed||
|:B E3 GABG|A2 FE D2 ed|B E3 GABG|Aeed e2 ed|
B E3 GABG|A2 FE D2 D2|edBG A2 BA|1 GEFD E2 ed:|2 GEFD E2 E2||

